X:483
M:C|
L:1/8
Q:1/4=150
K:A Minor
|:c|G<E E>D C>DE>A|G<E E>D C<A, A,>A|G<E E>D C>DE>G|
E<A A>^G A>A, A:|
E<A A>^G A<A, A,>B|c>ec>e d>ed>e|c>ec>e d>BG>B|
c>ec>e d>gd>g|e<a a>^g a<AA||

